X: 16186
T: Green Pigeon, The
R: reel
M: 4/4
K: Dmajor
FDAF GFED|FDAF G3 A|FDAF GFEc|dBcA G3 A|
FDAF GFED|FDAF G3 A|FDAF GFEc|dBcA G3 A:|
|:A3 B cAGE|A3 B cdec|A3 B cAGE|dBcA G2 G2|
A3 B cAGE|A3 B cd e2|f3 d e3 c|dcAF G2 G2:|

